assets/img/i-d-honestidad.svg

<svg width="90" height="90" viewBox="0 0 90 90" fill="none" xmlns="http://www.w3.org/2000/svg">
<path d="M4.30182 18.1088C6.10433 18.1088 7.56556 16.6475 7.56556 14.845C7.56556 13.0425 6.10433 11.5813 4.30182 11.5813C2.49931 11.5813 1.03809 13.0425 1.03809 14.845C1.03809 16.6475 2.49931 18.1088 4.30182 18.1088Z" fill="#9D3BFF"/>
<path d="M16.0908 11.3637C19.0895 11.3637 21.5205 8.93279 21.5205 5.93406C21.5205 2.93534 19.0895 0.504395 16.0908 0.504395C13.0921 0.504395 10.6611 2.93534 10.6611 5.93406C10.6611 8.93279 13.0921 11.3637 16.0908 11.3637Z" fill="#00C4D1"/>
<path d="M68.7559 89.5055C70.5584 89.5055 72.0197 88.0443 72.0197 86.2418C72.0197 84.4392 70.5584 82.978 68.7559 82.978C66.9534 82.978 65.4922 84.4392 65.4922 86.2418C65.4922 88.0443 66.9534 89.5055 68.7559 89.5055Z" fill="#00C4D1"/>
<path d="M84.0361 84.4319C87.0348 84.4319 89.4658 82.0009 89.4658 79.0022C89.4658 76.0035 87.0348 73.5725 84.0361 73.5725C81.0374 73.5725 78.6064 76.0035 78.6064 79.0022C78.6064 82.0009 81.0374 84.4319 84.0361 84.4319Z" fill="#9D3BFF"/>
<path d="M5.48852 87.8934C4.92857 87.8838 4.38833 87.6852 3.95556 87.3297C3.59181 87.0312 3.31921 86.6365 3.16884 86.1906C3.01846 85.7447 2.99634 85.2656 3.10501 84.8077L8.18852 63.1879C5.43102 58.0504 3.97745 52.3143 3.95556 46.4835C3.95556 25.6253 22.4402 8.63409 45.1281 8.63409C67.816 8.63409 86.261 25.6253 86.261 46.4835C86.261 67.3418 67.8061 84.3627 45.1281 84.3627C37.9715 84.385 30.9186 82.6532 24.5863 79.3187L6.54676 87.666C6.21378 87.8149 5.85329 87.8924 5.48852 87.8934ZM45.1281 13.6484C25.2094 13.6484 8.99951 28.3846 8.99951 46.4835C8.99857 51.7779 10.3902 56.9794 13.0347 61.566C13.35 62.1173 13.4421 62.7686 13.2918 63.3857L9.12808 80.9407L23.627 74.2352C23.9909 74.0656 24.3902 73.9861 24.7913 74.0033C25.1923 74.0205 25.5834 74.134 25.9314 74.3341C31.7827 77.6552 38.4 79.3905 45.1281 79.3682C65.0369 79.3682 81.2468 64.622 81.2468 46.5033C81.2468 28.3846 65.0369 13.6484 45.1281 13.6484Z" fill="#00C4D1"/>
<path d="M25.3086 53.7725C28.9082 53.7725 31.8262 50.8545 31.8262 47.2549C31.8262 43.6554 28.9082 40.7374 25.3086 40.7374C21.709 40.7374 18.791 43.6554 18.791 47.2549C18.791 50.8545 21.709 53.7725 25.3086 53.7725Z" fill="#9D3BFF"/>
<path d="M44.377 53.7725C47.9765 53.7725 50.8945 50.8545 50.8945 47.2549C50.8945 43.6554 47.9765 40.7374 44.377 40.7374C40.7774 40.7374 37.8594 43.6554 37.8594 47.2549C37.8594 50.8545 40.7774 53.7725 44.377 53.7725Z" fill="#9D3BFF"/>
<path d="M63.9395 53.7725C67.539 53.7725 70.457 50.8545 70.457 47.2549C70.457 43.6554 67.539 40.7374 63.9395 40.7374C60.3399 40.7374 57.4219 43.6554 57.4219 47.2549C57.4219 50.8545 60.3399 53.7725 63.9395 53.7725Z" fill="#9D3BFF"/>
</svg>

<svg xmlns="http://www.w3.org/2000/svg" xmlns:xlink="http://www.w3.org/1999/xlink" width="90" height="90" fill="none" xmlns:v="https://vecta.io/nano"><path d="M4.302 18.11c1.803 0 3.264-1.46 3.264-3.264s-1.46-3.264-3.264-3.264-3.264 1.46-3.264 3.264S2.5 18.11 4.302 18.11z" fill="#9d3bff"/><g fill="#00c4d1"><use xlink:href="#B"/><path d="M68.756 89.506c1.803 0 3.264-1.46 3.264-3.264s-1.46-3.264-3.264-3.264-3.264 1.46-3.264 3.264 1.46 3.264 3.264 3.264z"/></g><use xlink:href="#B" x="67.946" y="73.068" fill="#9d3bff"/><path d="M5.49 87.893a2.48 2.48 0 0 1-1.533-.564 2.51 2.51 0 0 1-.851-2.522l5.084-21.62C5.43 58.05 3.977 52.314 3.956 46.484c0-20.858 18.485-37.85 41.173-37.85s41.133 16.99 41.133 37.85-18.455 37.88-41.133 37.88c-7.157.022-14.2-1.7-20.542-5.044l-18.04 8.347a2.61 2.61 0 0 1-1.058.227zm39.64-74.245C25.21 13.648 9 28.385 9 46.484 9 51.778 10.4 56.98 13.035 61.566a2.48 2.48 0 0 1 .257 1.82L9.128 80.94l14.5-6.706a2.5 2.5 0 0 1 1.164-.232c.4.017.792.13 1.14.33a38.63 38.63 0 0 0 19.197 5.034c19.91 0 36.12-14.746 36.12-32.865s-16.2-32.855-36.12-32.855z" fill="#00c4d1"/><g fill="#9d3bff"><path d="M25.31 53.773a6.52 6.52 0 0 0 6.518-6.518 6.52 6.52 0 0 0-6.518-6.517 6.52 6.52 0 0 0-6.518 6.517 6.52 6.52 0 0 0 6.518 6.518z"/><use xlink:href="#C"/><use xlink:href="#C" x="19.563"/></g><defs ><path id="B" d="M16.09 11.364a5.43 5.43 0 0 0 5.43-5.43 5.43 5.43 0 0 0-5.43-5.43 5.43 5.43 0 0 0-5.43 5.43 5.43 5.43 0 0 0 5.43 5.43z"/><path id="C" d="M44.377 53.773a6.52 6.52 0 0 0 6.517-6.518 6.52 6.52 0 0 0-6.517-6.517 6.52 6.52 0 0 0-6.518 6.517 6.52 6.52 0 0 0 6.518 6.518z"/></defs></svg>
